X: 30731
T: DR. CHASSARD'S HORNPIPE
C:
%R: hornpipe, reel
B: Elias Howe "The Musician's Companion" Part 3 1844 p.73 #1
S: http://imslp.org/wiki/The_Musician's_Companion_(Howe,_Elias)
Z: 2015 John Chambers <jc:trillian.mit.edu>
M: 2/4
L: 1/16
K: D
% - - - - - - - - - - - - - - - - - - - - - - - - -
dB |\
AFDF A2Ad | BABd e2de | fefg f2ed | defd B2Bd |\
AFDF A2Ad | BABd e2de | fafd efge | f2d2d2 :|
|: (fg) |\
afdf a2af | gfga b2ag | fgaf egfe | defd B2dB |\
AFDF A2Ad | BABd e2de | fafd efge | f2d2d2 :|
% - - - - - - - - - - - - - - - - - - - - - - - - -
